X:1
T:Title
L:1/8
M:4/4
I:linebreak $
K:D
V:1 treble nm="Voice"
V:1
"D" fedc d2 AF |"G" G2 A>B A2 (3GFE |"D" D2 d>c"G" B3 A | GFGB"A" A2 c/d/e/f/ |"G" g3 f"A" e2 de | %5
"D" fdAF"G" G2- GA/B/ |"D" Ad d2"G" ef g2 |1"A" eddc"D" d2 A/c/d/e/ :|2"A" eddc"D" d2 dc/A/ |: %9
"G" B2- Bc/d/"D" AF F2 |"G" BGdc"D" A4 |"G" B2- Bc/d/"D" AF d2 |"A" ef g>f e3 f | %13
"G" g3 f"A" e2 de |"D" fdAF"G" G2- GA/B/ |"D" Ad d2"G" ef g2 |1"A" eddc"D" d2 dc/A/ :|2 %17
"A" eddc"D" d2 A/c/d/e/ |] %18
